X:9
T: Polonesse No 9
T: ur Andreas Dahlgrens notbok
R: Polska
B: Andreas Dahlgrens notbok
B: http://www.smus.se/earkiv/fmk/browselarge.php?lang=sw&katalogid=Ma+7&bildnr=00006
S: efter Andreas Dahlgren
O: Fågelvik, Tryserum, Småland
Z: till abc av Olle Paulsson 2017-03-12
M: 3/4
L: 1/16
K: A
A4 c2BA G2E2|e2ge d2c2B2A2|A4 c2BA G2E2|ABcd e4 E4:|
|:e2c2c2e2e2g2|d2B2B2d2d2f2|c2B2A2c2B2A2|F2G2A2B2G2E2|
e2c2c2e2e2g2|d2B2B2d2d2f2|c2BA a2g2a2e2|cBAG A4 A,4:|

